svg/flat/maestro.svg

<svg height="471" viewBox="0 0 750 471" width="750" xmlns="http://www.w3.org/2000/svg"><g fill="none"><rect fill="#000" height="471" rx="40" width="750"/><g transform="translate(133 48)"><path d="m146.8 373.77v-24.77c0-9.35-6-15.64-15.55-15.72-5-.08-10.26 1.49-13.9 7-2.73-4.38-7-7-13.07-7-4.6271851-.232271-9.0320026 2.000568-11.58 5.87v-4.88h-8.61v39.55h8.69v-21.97c0-6.87 3.81-10.51 9.68-10.51 5.71 0 8.61 3.72 8.61 10.42v22h8.69v-21.91c0-6.87 4-10.51 9.68-10.51 5.87 0 8.69 3.72 8.69 10.42v22zm48.48-19.77v-19.77h-8.61v4.77c-2.73-3.56-6.87-5.79-12.49-5.79-11.09 0-19.77 8.69-19.77 20.77s8.69 20.77 19.77 20.77c5.63 0 9.76-2.23 12.49-5.79v4.8h8.61zm-32 0c0-6.95 4.55-12.66 12-12.66 7.12 0 11.91 5.46 11.91 12.66s-4.8 12.66-11.91 12.66c-7.47 0-12.02-5.71-12.02-12.66zm216.12-20.81c2.906602-.028642 5.790743.511498 8.49 1.59 2.514719 1.004654 4.807997 2.492736 6.75 4.38 1.913063 1.875758 3.429744 4.116773 4.46 6.59 2.146003 5.297587 2.146003 11.222413 0 16.52-1.030256 2.473227-2.546937 4.714242-4.46 6.59-1.941678 1.887671-4.235042 3.375809-6.75 4.38-5.466835 2.128264-11.533165 2.128264-17 0-2.510499-1.00137-4.797832-2.490006-6.73-4.38-1.901515-1.881202-3.410681-4.121157-4.44-6.59-2.146003-5.297587-2.146003-11.222413 0-16.52 1.029788-2.46859 2.538895-4.708458 4.44-6.59 1.932334-1.889787 4.219623-3.378394 6.73-4.38 2.705493-1.08107 5.596681-1.621257 8.51-1.59zm0 8.14c-1.681779-.014559-3.350036.301425-4.91.93-1.470254.590363-2.804249 1.475156-3.92 2.6-1.122908 1.148077-2.006664 2.507702-2.6 4-1.265729 3.309784-1.265729 6.970216 0 10.28.592861 1.492544 1.476675 2.852258 2.6 4 1.115751 1.124844 2.449746 2.009637 3.92 2.6 3.159488 1.239283 6.670512 1.239283 9.83 0 1.474284-.593902 2.814154-1.47808 3.94-2.6 1.132829-1.144071 2.023848-2.504406 2.62-4 1.265729-3.309784 1.265729-6.970216 0-10.28-.596152-1.495594-1.487171-2.855929-2.62-4-1.125846-1.12192-2.465716-2.006098-3.94-2.6-1.562387-.633286-3.234193-.952696-4.92-.94zm-137.3 12.67c-.08-12.33-7.69-20.77-18.78-20.77-11.58 0-19.69 8.44-19.69 20.77 0 12.58 8.44 20.77 20.27 20.77 6 0 11.42-1.49 16.22-5.54l-4.22-6.37c-3.266738 2.619648-7.313106 4.076341-11.5 4.14-5.54 0-10.59-2.56-11.83-9.68h29.37c.06-1.09.16-2.16.16-3.32zm-29.45-3.47c.91-5.71 4.38-9.6 10.51-9.6 5.54 0 9.1 3.47 10 9.6zm65.69-6.2c-3.757197-2.164453-8.004435-3.334681-12.34-3.4-4.72 0-7.53 1.74-7.53 4.63 0 2.65 3 3.39 6.7 3.89l4.05.58c8.61 1.24 13.82 4.88 13.82 11.83 0 7.53-6.62 12.91-18 12.91-6.45 0-12.41-1.66-17.13-5.13l4.05-6.7c3.797785 2.817702 8.43304 4.275905 13.16 4.14 5.87 0 9-1.74 9-4.8 0-2.23-2.23-3.47-6.95-4.14l-4.05-.58c-8.85-1.24-13.65-5.21-13.65-11.67 0-7.86 6.45-12.66 16.46-12.66 6.29 0 12 1.41 16.13 4.14zm41.35-2.23h-14.07v17.9c0 4 1.41 6.62 5.71 6.62 2.684365-.088246 5.302562-.85547 7.61-2.23l2.48 7.36c-3.227525 2.011602-6.956934 3.072196-10.76 3.06-10.18 0-13.73-5.46-13.73-14.65v-18h-8v-7.86h8v-12h8.69v12h14.06zm29.78-8.85c2.086514.010012 4.15609.375232 6.12 1.08l-2.65 8.11c-1.710096-.683978-3.538347-1.023802-5.38-1-5.63 0-8.44 3.64-8.44 10.18v22.17h-8.6v-39.56h8.48v4.77c2.149726-3.693802 6.148028-5.915508 10.42-5.79z" fill="#fff"/><path d="m176.95 32.39h130.5v234.51h-130.5z" fill="#7673c0"/><path d="m185.24 149.64c-.03486-45.77046 20.985386-89.0131626 57-117.26-61.147032-48.0618249-148.9622811-41.06578574-201.7283628 16.0712353-52.7660817 57.1370207-52.7660817 145.2305087 0 202.3675297s140.5813308 64.13306 201.7283628 16.071235c-36.011849-28.244672-57.031785-71.483049-57-117.25z" fill="#eb001b"/><path d="m483.5 149.64c.001034 57.09874-32.59844 109.186356-83.954442 134.142862s-112.453215 18.400897-157.345558-16.882862c35.966584-28.279813 56.964715-71.501935 56.964715-117.255s-20.998131-88.975187-56.964715-117.255c44.890924-35.28264477 105.985845-41.83904288 157.341061-16.8850475 51.355216 24.9539954 83.956145 77.0381115 83.958939 134.1350475z" fill="#00a1df"/></g></g></svg>

<svg width="750" height="471" viewBox="0 0 750 471" version="1.1" xmlns="http://www.w3.org/2000/svg" xmlns:xlink="http://www.w3.org/1999/xlink">
    <!-- Generator: Sketch 48.2 (47327) - http://www.bohemiancoding.com/sketch -->
    <desc>Created with Sketch.</desc>
    <defs></defs>
    <g id="Page-1" stroke="none" stroke-width="1" fill="none" fill-rule="evenodd">
        <g id="maestro" fill-rule="nonzero">
            <rect id="Rectangle-1" fill="#000000" x="0" y="0" width="750" height="471" rx="40"></rect>
            <g id="Group" transform="translate(133.000000, 48.000000)">
                <path d="M146.8,373.77 L146.8,349 C146.8,339.65 140.8,333.36 131.25,333.28 C126.25,333.2 120.99,334.77 117.35,340.28 C114.62,335.9 110.35,333.28 104.28,333.28 C99.6528149,333.047729 95.2479974,335.280568 92.7,339.15 L92.7,334.27 L84.09,334.27 L84.09,373.82 L92.78,373.82 L92.78,351.85 C92.78,344.98 96.59,341.34 102.46,341.34 C108.17,341.34 111.07,345.06 111.07,351.76 L111.07,373.76 L119.76,373.76 L119.76,351.85 C119.76,344.98 123.76,341.34 129.44,341.34 C135.31,341.34 138.13,345.06 138.13,351.76 L138.13,373.76 L146.8,373.77 Z M195.28,354 L195.28,334.23 L186.67,334.23 L186.67,339 C183.94,335.44 179.8,333.21 174.18,333.21 C163.09,333.21 154.41,341.9 154.41,353.98 C154.41,366.06 163.1,374.75 174.18,374.75 C179.81,374.75 183.94,372.52 186.67,368.96 L186.67,373.76 L195.28,373.76 L195.28,354 Z M163.28,354 C163.28,347.05 167.83,341.34 175.28,341.34 C182.4,341.34 187.19,346.8 187.19,354 C187.19,361.2 182.39,366.66 175.28,366.66 C167.81,366.66 163.26,360.95 163.26,354 L163.28,354 Z M379.4,333.19 C382.306602,333.161358 385.190743,333.701498 387.89,334.78 C390.404719,335.784654 392.697997,337.272736 394.64,339.16 C396.553063,341.035758 398.069744,343.276773 399.1,345.75 C401.246003,351.047587 401.246003,356.972413 399.1,362.27 C398.069744,364.743227 396.553063,366.984242 394.64,368.86 C392.698322,370.747671 390.404958,372.235809 387.89,373.24 C382.423165,375.368264 376.356835,375.368264 370.89,373.24 C368.379501,372.23863 366.092168,370.749994 364.16,368.86 C362.258485,366.978798 360.749319,364.738843 359.72,362.27 C357.573997,356.972413 357.573997,351.047587 359.72,345.75 C360.749788,343.28141 362.258895,341.041542 364.16,339.16 C366.092334,337.270213 368.379623,335.781606 370.89,334.78 C373.595493,333.69893 376.486681,333.158743 379.4,333.19 Z M379.4,341.33 C377.718221,341.315441 376.049964,341.631425 374.49,342.26 C373.019746,342.850363 371.685751,343.735156 370.57,344.86 C369.447092,346.008077 368.563336,347.367702 367.97,348.86 C366.704271,352.169784 366.704271,355.830216 367.97,359.14 C368.562861,360.632544 369.446675,361.992258 370.57,363.14 C371.685751,364.264844 373.019746,365.149637 374.49,365.74 C377.649488,366.979283 381.160512,366.979283 384.32,365.74 C385.794284,365.146098 387.134154,364.26192 388.26,363.14 C389.392829,361.995929 390.283848,360.635594 390.88,359.14 C392.145729,355.830216 392.145729,352.169784 390.88,348.86 C390.283848,347.364406 389.392829,346.004071 388.26,344.86 C387.134154,343.73808 385.794284,342.853902 384.32,342.26 C382.757613,341.626714 381.085807,341.307304 379.4,341.32 L379.4,341.33 Z M242.1,354 C242.02,341.67 234.41,333.23 223.32,333.23 C211.74,333.23 203.63,341.67 203.63,354 C203.63,366.58 212.07,374.77 223.9,374.77 C229.9,374.77 235.32,373.28 240.12,369.23 L235.9,362.86 C232.633262,365.479648 228.586894,366.936341 224.4,367 C218.86,367 213.81,364.44 212.57,357.32 L241.94,357.32 C242,356.23 242.1,355.16 242.1,354 Z M212.65,350.53 C213.56,344.82 217.03,340.93 223.16,340.93 C228.7,340.93 232.26,344.4 233.16,350.53 L212.65,350.53 Z M278.34,344.33 C274.582803,342.165547 270.335565,340.995319 266,340.93 C261.28,340.93 258.47,342.67 258.47,345.56 C258.47,348.21 261.47,348.95 265.17,349.45 L269.22,350.03 C277.83,351.27 283.04,354.91 283.04,361.86 C283.04,369.39 276.42,374.77 265.04,374.77 C258.59,374.77 252.63,373.11 247.91,369.64 L251.96,362.94 C255.757785,365.757702 260.39304,367.215905 265.12,367.08 C270.99,367.08 274.12,365.34 274.12,362.28 C274.12,360.05 271.89,358.81 267.17,358.14 L263.12,357.56 C254.27,356.32 249.47,352.35 249.47,345.89 C249.47,338.03 255.92,333.23 265.93,333.23 C272.22,333.23 277.93,334.64 282.06,337.37 L278.34,344.33 Z M319.69,342.1 L305.62,342.1 L305.62,360 C305.62,364 307.03,366.62 311.33,366.62 C314.014365,366.531754 316.632562,365.76453 318.94,364.39 L321.42,371.75 C318.192475,373.761602 314.463066,374.822196 310.66,374.81 C300.48,374.81 296.93,369.35 296.93,360.16 L296.93,342.16 L288.93,342.16 L288.93,334.3 L296.93,334.3 L296.93,322.3 L305.62,322.3 L305.62,334.3 L319.68,334.3 L319.69,342.1 Z M349.47,333.25 C351.556514,333.260012 353.62609,333.625232 355.59,334.33 L352.94,342.44 C351.229904,341.756022 349.401653,341.416198 347.56,341.44 C341.93,341.44 339.12,345.08 339.12,351.62 L339.12,373.79 L330.52,373.79 L330.52,334.23 L339,334.23 L339,339 C341.149726,335.306198 345.148028,333.084492 349.42,333.21 L349.47,333.25 Z" id="Shape" fill="#FFFFFF"></path>
                <g id="_Group_">
                    <rect id="Rectangle-path" fill="#7673C0" x="176.95" y="32.39" width="130.5" height="234.51"></rect>
                    <path d="M185.24,149.64 C185.20514,103.86954 206.225386,60.6268374 242.24,32.38 C181.092968,-15.6818249 93.2777189,-8.68578574 40.5116372,48.4512353 C-12.2544445,105.588256 -12.2544445,193.681744 40.5116372,250.818765 C93.2777189,307.955786 181.092968,314.951825 242.24,266.89 C206.228151,238.645328 185.208215,195.406951 185.24,149.64 Z" id="_Path_" fill="#EB001B"></path>
                    <path d="M483.5,149.64 C483.501034,206.73874 450.90156,258.826356 399.545558,283.782862 C348.189556,308.739368 287.092343,302.183759 242.2,266.9 C278.166584,238.620187 299.164715,195.398065 299.164715,149.645 C299.164715,103.891935 278.166584,60.669813 242.2,32.39 C287.090924,-2.89264477 348.185845,-9.44904288 399.541061,15.5049525 C450.896277,40.4589479 483.497206,92.543064 483.5,149.64 Z" id="Shape" fill="#00A1DF"></path>
                </g>
            </g>
        </g>
    </g>
</svg>
